X: 2092
T: Çekmiş Yüzüne Nikab-ı İşve
C: Taşçızâde Recep Çelebi
O: Turkey
F: http://compmusic.upf.edu/node/140
N: rast--agirsemai--aksaksemai--cekmis_yuzune--tascizade_recep_celebi
N: makam= rast
N: form= agirsemai
N: usul= aksaksemai = 10/8
M: 10/8
L: 1/16
K: C _1/4B ^f  
Q: 1/4=144
%%MIDI tuningsystem comma53
z4 z2z4z4e4d2  | d4 c2d2 e2d2 c2d2 c2_2/4BA  | \
w:  Çek  |  miş  *  yü *  *  zü ne   | 
B4 G2A6 G2d4cB  | 
w:  *  ni kab_ ı  iş  | 
B4 AG{A}G4z4e4d2  | d4 c2d2 e2d2 c2d2 c2_2/4BA  | \
w:  ve   *  *  *  *  Ey   |  maz *  hâr_ *  *  ı  â  | 
B4 G2A6 G2d4cB  | 
w:  *  fi tâb_ ı  iş  | 
B4 AG{A}G4z4B4B2  | B4 B2d3cdc cBB6  | \
w:  ve   *  *  *  *  Ten  ni   |  ten  ni  dir  *  dir  *  *  *  ten   | 
z4 G2G2 c2B2 c2d6  | 
w:  te  ne  *  *  ni   Tâ   | 
d4 B2c2 d2c2 B2e4d2  | d4 B2c2 d2c2 B2e4d2  | \
w:  nâ  *  te  *  ne  *  dir   |  ney  *  dir  *  nâ  *  dir   | 
{e}d8-d2z4e2 d2c2  | 
w:  *  ney   Dir  dir   | 
B4 z2d3cc3BA4z2  | c4 BAG4z4c2 B2c2  | \
w:  ten  dir  *  dir  *  ten   |  dir  dir  *  ten   Tâ   | 
B2d2 cBA4z4G2 F2G2  | 
w:  nâ  *  *  *  *  tâ   | 
F2A2 GFE4z4c4d2  | {e}d4 B2c2 d2c2 B2e4d2  | \
w:  nâ  *  *  *  *  ta   |  *  nâ  *  dir  *  nâ  *  dir   | 
{e}d8-d2z4e2 d2c2  | 
w:  *  ney   Ye  lel   | 
B4 z2d3cc3BA4z2  | c4 BAG4z4c2 B2c2  | \
w:  lâ  yel  *  lel  *  lâ   |  ye  le  *  lâ   Yâ   | 
B2d2 cBA4z4G2 F2G2  | 
w:  lâ  *  *  *  *  yâ   | 
F2A2 GFE4z4c4d2  | {e}d4 B2c2 d2c2 B2e4d2  | \
w:  lâ  *  *  *  *  yâ   |  *  lâ  *  ye  *  le  *  lel   | 
{e}d8-d2z4e4d2  | 
w:  *  li   Ey   | 
d4 c2d2 e2d2 c2d2 c2_2/4BA  | B4 G2A6 G2d4cB  | \
w:  maz *  hâr_ *  *  ı  â  |  *  fi tâb_ ı  iş  | 
B4 AG{A}G4z4e4d2  | 
w:  ve   *  *  *  *  Kim   | 
d4 c2d2 e2d2 c2d2 c2_2/4BA  | B4 G2A6 G2d4cB  | \
w:  kar *  şı  *  *  du rur   |  *  ni gâh_ ı  mes  | 
B4 AGG4z4e4d2  | 
w:  te   *  *  *  Gel  | 
d4 c2d2 e2d2 c2d2 c2_2/4BA  | B4 G2A6 G2d4cB  | \
w:  miş  *  gö *  *  zü ne   |  *  şa râb_ ı  iş  | 
B4 AG{A}G4z4B4B2  | 
w:  ve   *  *  *  *  Ten  ni   | 
B4 B2d3cdc cBB6  | z4 G2G2 c2B2 c2d6  | \
w:  ten  ni  dir  *  dir  *  *  *  ten   |  te  ne  *  *  ni   Tâ   | 
d4 B2c2 d2c2 B2e4d2  | 
w:  nâ  *  te  *  ne  *  dir   | 
d4 B2c2 d2c2 B2e4d2  | {e}d8-d2z4e2 d2c2  | \
w:  ney  *  dir  *  nâ  *  dir   |  *  ney   Dir  dir   | 
B4 z2d3cc3BA4z2  | 
w:  ten  dir  *  dir  *  ten   | 
c4 BAG4z4c2 B2c2  | B2d2 cBA4z4G2 F2G2  | \
w:  dir  dir  *  ten   Tâ   |  nâ  *  *  *  *  tâ   | 
F2A2 GFE4z4c4d2  | 
w:  nâ  *  *  *  *  ta   | 
{e}d4 B2c2 d2c2 B2e4d2  | {e}d8-d2z4e2 d2c2  | \
w:  *  nâ  *  dir  *  nâ  *  dir   |  *  ney   Ye  lel   | 
B4 z2d3cc3BA4z2  | 
w:  lâ  yel  *  lel  *  lâ   | 
c4 BAG4z4c2 B2c2  | B2d2 cBA4z4G2 F2G2  | \
w:  ye  le  *  lâ   Yâ   |  lâ  *  *  *  *  yâ   | 
F2A2 GFE4z4c4d2  | 
w:  lâ  *  *  *  *  yâ   | 
{e}d4 B2c2 d2c2 B2e4d2  | {e}d8-d2z4e4d2  | \
w:  *  lâ  *  ye  *  le  *  lel   |  *  li   Ey   | 
d4 c2d2 e2d2 c2d2 c2_2/4BA  | 
w:  maz *  hâr_ *  *  ı  â  | 
B4 G2A6 G2d4cB  | B4 AG{A}G4z4e4d2  | \
w:  *  fi tâb_ ı  iş  |  ve   *  *  *  *  Kim   | 
d4 c2d2 e2d2 c2d2 c2_2/4BA  | 
w:  kar *  şı  *  *  du rur   | 
B4 G2A6 G2d4cB  | B4 AGG4z4e4d2  | d4 c2d2 e2d2 c2d2 c2_2/4BA  | 
w:  *  ni gâh_ ı  mes  |  te   *  *  *  Gel  |  miş  *  gö *  *  zü ne   | 
B4 G2A6 G2d4cB  | B4 AG{A}G4z4|
w:  *  şa râb_ ı  iş  |  ve    | 


